X: 820
T: Blackeyed Biddy
N:"Collected by J.O'Neill"
B:O'Neill's 820
Z:Transcribed by Dan G. Petersen, dangp@post6.tele.dk
M:6/8
L:1/8
K:A
E|ABA Ace|eac B2A|cBA d2B|cAA aec|
ABA Ace|eac B2A|cBA d2B|cAA A2:|
a|e2a f2a|e2a fed|efg aec|eac ecA|
cBc dcd|eac B2A|cBA d2B|cAA A2:|


